**kern
*clefF4
*k[]
*M4/4
=1
*^
4G	2C 2E
4B-X	.
2F 2A	4C
.	4E-X
=2	=2
2D 2B-X	4F
.	4A-X
2G-X 2B-X	4E-X
.	4C
=3	=3
4B-X	2D-X 2F
4Gn	.
2Fn 2A	4C
.	4E-X
=4	=4
4B-X	2D-X 2F
4Gn	.
4F	2C 2A-X
4Dn	.
=5	=5
2E-X 2G	4C
.	4AAn
4D	2BBn 2Gn
4F	.
*v	*v
=6
1C 1En 1G
!!linebreak:original
=7
*^
2C 2E	4AA
.	4FF#X
4E	2GG 2BB
4C#X	.
=8	=8
4BB	2FF#X 2D
4GG#X	.
4C#X	2FF#X 2AA#X
4E	.
=9	=9
2BB 2D#X	4FF#X
.	4AAn
4E	2GG 2BB
4C#X	.
=10	=10
2BB 2D#X	4FF#X
.	4AAn
4BB	2GG#X 2E
4Dn	.
=11	=11
4E	2AA 2C#X
4Gn	.
2AAn 2Fn	4D
.	4BB
*v	*v
=12
1AA 1Cn 1E
==
*-
!!!system-decoration: [(s1
